artwork/resources/intui/icons/shell/tool-windows/multi-preview_dark.svg

<svg width="16" height="16" viewBox="0 0 16 16" fill="none" xmlns="http://www.w3.org/2000/svg">
<path d="M9.5 6.5H11.5M7.5 13.5V5.5C7.5 4.94772 7.94772 4.5 8.5 4.5H12.5C13.0523 4.5 13.5 4.94772 13.5 5.5V13.5C13.5 14.0523 13.0523 14.5 12.5 14.5H8.5C7.94772 14.5 7.5 14.0523 7.5 13.5Z" stroke="#CED0D6" stroke-linecap="round"/>
<path fill-rule="evenodd" clip-rule="evenodd" d="M4 1C2.89543 1 2 1.89543 2 3V13C2 14.1046 2.89543 15 4 15H6V14H4C3.44772 14 3 13.5523 3 13V3C3 2.44772 3.44772 2 4 2H10C10.5523 2 11 2.44772 11 3H12C12 1.89543 11.1046 1 10 1H4Z" fill="#CED0D6"/>
</svg>

<svg width="16" height="16" viewBox="0 0 16 16" fill="none" xmlns="http://www.w3.org/2000/svg"><path d="M9.5 6.5h2m-4 7v-8a1 1 0 0 1 1-1h4a1 1 0 0 1 1 1v8a1 1 0 0 1-1 1h-4a1 1 0 0 1-1-1z" stroke="#CED0D6" stroke-linecap="round"/><path fill-rule="evenodd" clip-rule="evenodd" d="M4 1a2 2 0 0 0-2 2v10a2 2 0 0 0 2 2h2v-1H4a1 1 0 0 1-1-1V3a1 1 0 0 1 1-1h6a1 1 0 0 1 1 1h1a2 2 0 0 0-2-2H4z" fill="#CED0D6"/></svg>
